X: 3
T: The Fergus Reel
L: 1/8
M: 4/4
R: reel
K: Dmaj
|: fd ~d2 edcA | BGEF GBAG | ~F3 A ~G3 B |[1 ABde gbag :|[2 Adag fd d2 ||
|: fd ~d2 fdfa | ge (3.e.e.e gebe | fdAF G2 AG |[1 FAdf gbag :|[2 F2 ag fd d2 |]
